src/icons/svg/Beaker.svg

<svg width="24" height="24" viewBox="0 0 24 24" fill="none" xmlns="http://www.w3.org/2000/svg">
<g clip-path="url(#clip0)">
<path d="M16.5 3.002C17.33 3.002 18 2.331 18 1.502C18 0.673999 17.33 0.0019989 16.5 0.0019989C15.67 0.0019989 15 0.673999 15 1.502C15 2.331 15.67 3.002 16.5 3.002ZM12 4.503C12.828 4.503 13.5 3.831 13.5 3.001C13.5 2.173 12.83 1.501 12 1.501C11.17 1.501 10.5 2.173 10.5 3.001C10.5 3.83 11.172 4.503 12 4.503ZM20.665 22.515C19.159 19.617 16.5 13.501 16.5 13.501V7.501H17.25C17.663 7.501 18 7.165 18 6.751C18 6.338 17.663 6.001 17.25 6.001H8.24998C7.83598 6.001 7.49998 6.338 7.49998 6.751C7.49998 7.165 7.83598 7.501 8.24998 7.501H8.99998V13.501C8.99998 13.501 6.39898 19.832 4.92798 22.661C4.23198 24.002 4.23198 24.002 5.89198 24.002C9.51298 24.002 16.571 24.002 19.989 24.002C20.66 24.002 21.44 24.002 20.666 22.514L20.665 22.515ZM10.5 13.502V7.502H15V13.502C15 13.502 15.264 14.121 15.642 15.002H9.89098C10.251 14.123 10.5 13.502 10.5 13.502V13.502ZM17.907 22.502C15.06 22.502 10.928 22.502 7.90998 22.502C6.52698 22.502 6.52698 22.502 7.10698 21.354C7.72198 20.136 8.57398 18.165 9.26998 16.502H16.296C17.003 18.108 17.855 20.003 18.473 21.225C19.116 22.501 18.467 22.501 17.907 22.501V22.502Z" fill="#1C2125"/>
</g>
<defs>
<clipPath id="clip0">
<rect width="24" height="24" fill="white"/>
</clipPath>
</defs>
</svg>

<!-- Generated by IcoMoon.io -->
<svg version="1.1" xmlns="http://www.w3.org/2000/svg" width="24" height="24" viewBox="0 0 24 24">
<title>beaker</title>
<path fill="#444" d="M16.5 3.002c0.83 0 1.5-0.671 1.5-1.5 0-0.828-0.67-1.5-1.5-1.5s-1.5 0.672-1.5 1.5c0 0.829 0.67 1.5 1.5 1.5zM12 4.503c0.828 0 1.5-0.672 1.5-1.502 0-0.828-0.67-1.5-1.5-1.5s-1.5 0.672-1.5 1.5c0 0.829 0.672 1.502 1.5 1.502zM20.665 22.515c-1.506-2.898-4.165-9.014-4.165-9.014v-6h0.75c0.413 0 0.75-0.336 0.75-0.75 0-0.413-0.337-0.75-0.75-0.75h-9c-0.414 0-0.75 0.337-0.75 0.75 0 0.414 0.336 0.75 0.75 0.75h0.75v6c0 0-2.601 6.331-4.072 9.16-0.696 1.341-0.696 1.341 0.964 1.341 3.621 0 10.679 0 14.097 0 0.671 0 1.451 0 0.677-1.488zM10.5 13.502v-6h4.5v6c0 0 0.264 0.619 0.642 1.5h-5.751c0.36-0.879 0.609-1.5 0.609-1.5zM17.907 22.502c-2.847 0-6.979 0-9.997 0-1.383 0-1.383 0-0.803-1.148 0.615-1.218 1.467-3.189 2.163-4.852h7.026c0.707 1.606 1.559 3.501 2.177 4.723 0.643 1.276-0.006 1.276-0.566 1.276z"></path>
</svg>
